X: 39943
T: Thompson's
R: jig
M: 6/8
K: Gmajor
|:~B3 GBd|~g3 ged|e/f/ge dBG|~A3 cBA|
GBd GBd|~g3 ged|e/f/ge dBd|1 egf gdc:|2 egf g2d||
|:gbg ged|e/f/ge dBd|~g3 ged|~a3 age|
gba ged|e/f/ge dBA|~B3 dBA|1 GFA GBd:|2 GFA G3||

